X: 1
T: Throw The Beetle At Her
R: slip jig
M: 9/8
L: 1/8
K: Bmin
|: f2B BAB ~g2e | f2B B2d cBA | f2B BAB ~g3 |1 efg aed cde :|2 efg aed cBA |
|: d2f fef fef | d2f fef ecA | d2f fef fef | efg aed cBA :|


Tune 988	Setting 14189

